icon-themes/breeze_svg/svx/res/marker-rectplus11-4.svg

<svg height="11" viewBox="0 0 11 11" width="11" xmlns="http://www.w3.org/2000/svg"><path d="m0 0v11.00002h11v-11.00002zm5 1h1v1 3h3 1v1h-1-3v3.00002 1h-1v-1-3.00002h-3-1v-1h1 3v-3z" fill="#da4453"/><path d="m5 1v4h-4v1h4v4.00002h1v-4.00002h4v-1h-4v-4z" fill="#fff"/></svg>

<?xml version="1.0" encoding="UTF-8" standalone="no"?>
<svg
   xmlns:dc="http://purl.org/dc/elements/1.1/"
   xmlns:cc="http://creativecommons.org/ns#"
   xmlns:rdf="http://www.w3.org/1999/02/22-rdf-syntax-ns#"
   xmlns:svg="http://www.w3.org/2000/svg"
   xmlns="http://www.w3.org/2000/svg"
   xmlns:sodipodi="http://sodipodi.sourceforge.net/DTD/sodipodi-0.dtd"
   xmlns:inkscape="http://www.inkscape.org/namespaces/inkscape"
   id="svg8856"
   version="1.1"
   viewBox="0 0 11 11"
   height="11"
   width="11"
   sodipodi:docname="marker-rectplus11-4.svg"
   inkscape:version="0.92pre3 r">
  <sodipodi:namedview
     pagecolor="#ffffff"
     bordercolor="#666666"
     borderopacity="1"
     objecttolerance="20"
     gridtolerance="10000"
     guidetolerance="10"
     inkscape:pageopacity="0"
     inkscape:pageshadow="2"
     inkscape:window-width="1600"
     inkscape:window-height="1671"
     id="namedview8428"
     showgrid="true"
     inkscape:snap-grids="true"
     inkscape:snap-page="false"
     showguides="true"
     inkscape:snap-text-baseline="false"
     inkscape:snap-to-guides="true"
     inkscape:pagecheckerboard="false"
     inkscape:showpageshadow="false"
     inkscape:zoom="20.082024"
     inkscape:cx="10.621665"
     inkscape:cy="-3.2272703"
     inkscape:window-x="1600"
     inkscape:window-y="55"
     inkscape:window-maximized="0"
     inkscape:current-layer="svg8856">
    <inkscape:grid
       type="xygrid"
       id="grid13502"
       empspacing="5" />
  </sodipodi:namedview>
  <defs
     id="defs8850" />
  <metadata
     id="metadata8853">
    <rdf:RDF>
      <cc:Work
         rdf:about="">
        <dc:format>image/svg+xml</dc:format>
        <dc:type
           rdf:resource="http://purl.org/dc/dcmitype/StillImage" />
        <dc:title></dc:title>
      </cc:Work>
    </rdf:RDF>
  </metadata>
  <path
     style="color:#000000;display:inline;overflow:visible;visibility:visible;fill:#da4453;fill-opacity:1;fill-rule:nonzero;stroke:none;stroke-width:2;marker:none;enable-background:accumulate"
     d="M 0,0 V 11.00002 H 11 V 0 Z m 5,1 h 1 v 1 3 h 3 1 V 6 H 9 6 v 3.00002 1 H 5 v -1 V 6 H 2 1 V 5 H 2 5 V 2 Z"
     id="rect4192-5-4-5-6"
     inkscape:connector-curvature="0" />
  <path
     style="color:#000000;display:inline;overflow:visible;visibility:visible;fill:#ffffff;fill-opacity:1;fill-rule:nonzero;stroke:none;stroke-width:2;marker:none;enable-background:accumulate"
     d="M 5,1 V 5 H 1 v 1 h 4 v 4.00002 H 6 V 6 h 4 V 5 H 6 V 1 Z"
     id="rect4328-9-5-5-6-3"
     inkscape:connector-curvature="0" />
</svg>
